icons/hex-add.svg

<svg width="24" height="24" viewBox="0 0 24 24" fill="none" xmlns="http://www.w3.org/2000/svg">
<path fill-rule="evenodd" clip-rule="evenodd" d="M14.4197 4.98033C13.1126 3.67322 10.8874 3.67322 9.58031 4.98033L4.98033 9.58031C3.67322 10.8874 3.67322 13.1126 4.98033 14.4197L9.58031 19.0196C10.8874 20.3268 13.1126 20.3268 14.4197 19.0196L19.0196 14.4197C20.3268 13.1126 20.3268 10.8874 19.0196 9.58031L14.4197 4.98033ZM8.51965 3.91967C10.4125 2.02678 13.5874 2.02678 15.4803 3.91967L20.0803 8.51965C21.9732 10.4125 21.9732 13.5874 20.0803 15.4803L15.4803 20.0803C13.5874 21.9732 10.4125 21.9732 8.51965 20.0803L3.91967 15.4803C2.02678 13.5874 2.02678 10.4125 3.91967 8.51965L8.51965 3.91967Z" fill="black"/>
<path fill-rule="evenodd" clip-rule="evenodd" d="M12.05 8.30005C12.4643 8.30005 12.8 8.63584 12.8 9.05005V15.05C12.8 15.4643 12.4643 15.8 12.05 15.8C11.6358 15.8 11.3 15.4643 11.3 15.05V9.05005C11.3 8.63584 11.6358 8.30005 12.05 8.30005Z" fill="black"/>
<path fill-rule="evenodd" clip-rule="evenodd" d="M8.30005 12.05C8.30005 11.6358 8.63584 11.3 9.05005 11.3H15.05C15.4643 11.3 15.8 11.6358 15.8 12.05C15.8 12.4643 15.4643 12.8 15.05 12.8H9.05005C8.63584 12.8 8.30005 12.4643 8.30005 12.05Z" fill="black"/>
</svg>

<svg xmlns="http://www.w3.org/2000/svg" fill="none" viewBox="0 0 24 24">
  <path fill="#000" fill-rule="evenodd" d="M14.42 4.98c-1.307-1.307-3.533-1.307-4.84 0l-4.6 4.6c-1.307 1.307-1.307 3.533 0 4.84l4.6 4.6c1.307 1.307 3.533 1.307 4.84 0l4.6-4.6c1.307-1.307 1.307-3.533 0-4.84l-4.6-4.6Zm-5.9-1.06c1.893-1.893 5.067-1.893 6.96 0l4.6 4.6c1.893 1.893 1.893 5.067 0 6.96l-4.6 4.6c-1.893 1.893-5.068 1.893-6.96 0l-4.6-4.6c-1.893-1.893-1.893-5.068 0-6.96l4.6-4.6Z" clip-rule="evenodd"/>
  <path fill="#000" fill-rule="evenodd" d="M12.05 8.3a.75.75 0 0 1 .75.75v6a.75.75 0 1 1-1.5 0v-6a.75.75 0 0 1 .75-.75Z" clip-rule="evenodd"/>
  <path fill="#000" fill-rule="evenodd" d="M8.3 12.05a.75.75 0 0 1 .75-.75h6a.75.75 0 1 1 0 1.5h-6a.75.75 0 0 1-.75-.75Z" clip-rule="evenodd"/>
</svg>
